X:167
T:Wellington's Advance
Z: id:dc-jig-143
M:6/8
L:1/8
K:A Dorian
G|EAA AGA|cBA c2d|efe efg|dBG GFG|!
EAA AGA|cBA c2d|efe dcB|cAA A2:|!
e|age age|aed cBA|BAG g3|dBG GFG|!
eaa a3|egg g3|efe dcB|cAA A2:|!

